X: 17
T:Out on the Ocean [in G]
M:6/8
L:1/8
R:Double Jig
K:G
E[|:D2B BAG|BdB ABA|GED G2A|~B3 AGE|!
D2B BAG|BdB ABA|GED G2A|1BGF G2E:|2BGF GBd|]!
efe edB|efe edB|ded dBd|edB dBA|!
G2A B2d|ege dBA|GED G2A|BGF GBd||!
efe edB|efe edB|ded def|gfe dBA|!
G2A B2d|ege dBA|GED G2A|BGF G2E|]!
